dist/img/icons/group444.svg

<svg width="299" height="59" viewBox="0 0 299 59" fill="none" xmlns="http://www.w3.org/2000/svg">
<g filter="url(#filter0_d_1_129)">
<path d="M45.8181 48.8306L6.33861 21.5977C2.33785 18.8381 3.69785 13.0922 8.6867 11.741L50.6463 0.352723C51.5351 0.0320001 52.4876 -0.0721106 53.4248 0.0490339C54.3619 0.170178 55.2566 0.513083 56.0347 1.04929C56.8127 1.58549 57.4517 2.29953 57.8985 3.13215C58.3453 3.96476 58.5871 4.89194 58.6038 5.83672L56.1171 44.4557C55.8222 49.0397 49.8188 51.5902 45.8181 48.8306Z" fill="#E9327C"/>
</g>
<path d="M33.2964 55.5531L10.0378 10.0681C9.50618 9.02755 9.27222 7.86037 9.36177 6.69528C9.45132 5.5302 9.86089 4.41247 10.5453 3.46538C11.2298 2.51828 12.1625 1.7786 13.2406 1.32792C14.3187 0.87723 15.5003 0.733045 16.6552 0.911259L59.7591 7.56379C60.7515 7.71697 61.6933 8.10351 62.5072 8.69164C63.3211 9.27976 63.9838 10.0527 64.4407 10.9468C64.8977 11.841 65.1359 12.8308 65.1357 13.8349C65.1356 14.8391 64.8971 15.8288 64.4398 16.7228L44.5835 55.5553C44.0503 56.5929 43.2414 57.4634 42.2456 58.0711C41.2498 58.6788 40.1058 59.0002 38.9393 59C37.7727 58.9998 36.6288 58.6779 35.6333 58.0698C34.6378 57.4617 33.8292 56.5909 33.2964 55.5531Z" fill="#1DACE3"/>
<path d="M58.4982 7.36843L37.0111 4.05206L10.6299 11.2151L21.1599 31.8153L45.8181 48.8307C46.3621 49.2018 46.9605 49.4862 47.5918 49.6735L56.9577 31.3576L58.4982 7.36843Z" fill="#3A68B8"/>
<path d="M167.335 12.6849C167.335 11.8862 167.572 11.1055 168.016 10.4414C168.459 9.77734 169.09 9.25975 169.828 8.95411C170.566 8.64847 171.378 8.56851 172.161 8.72432C172.944 8.88014 173.664 9.26474 174.229 9.82949C174.793 10.3942 175.178 11.1138 175.334 11.8971C175.49 12.6804 175.41 13.4924 175.104 14.2302C174.798 14.9681 174.281 15.5988 173.617 16.0425C172.953 16.4862 172.172 16.7231 171.373 16.7231C170.306 16.7122 169.285 16.2832 168.53 15.5283C167.775 14.7733 167.346 13.7525 167.335 12.6849ZM168.009 18.6971H174.74V41.1304H168.009V18.6971Z" fill="white"/>
<path d="M203.811 29.9139C203.889 31.3967 203.673 32.8803 203.176 34.2795C202.679 35.6786 201.91 36.9656 200.913 38.0666C199.917 39.1675 198.713 40.0605 197.37 40.6944C196.027 41.3282 194.572 41.6904 193.089 41.7599C191.841 41.8279 190.594 41.6174 189.438 41.144C188.282 40.6705 187.245 39.9458 186.404 39.0223V50.1048H179.674V18.6972H186.404V20.8055C187.245 19.8824 188.282 19.1581 189.438 18.685C190.595 18.2119 191.842 18.0019 193.089 18.0701C194.572 18.1394 196.027 18.5012 197.37 19.1348C198.712 19.7685 199.917 20.6613 200.913 21.7621C201.91 22.8628 202.679 24.1497 203.176 25.5487C203.673 26.9477 203.889 28.4312 203.811 29.9139ZM197.081 29.9139C197.055 28.8636 196.719 27.8444 196.116 26.9839C195.513 26.1233 194.67 25.4597 193.692 25.076C192.714 24.6924 191.645 24.6057 190.617 24.8269C189.59 25.048 188.651 25.5672 187.918 26.3195C187.184 27.0717 186.689 28.0236 186.494 29.0559C186.299 30.0883 186.412 31.1553 186.82 32.1234C187.229 33.0915 187.913 33.9176 188.789 34.4985C189.664 35.0794 190.692 35.3892 191.742 35.3891C192.464 35.4216 193.184 35.3011 193.856 35.0356C194.527 34.7701 195.135 34.3655 195.639 33.8484C196.143 33.3314 196.532 32.7135 196.781 32.0354C197.029 31.3573 197.132 30.6343 197.081 29.9139Z" fill="white"/>
<path d="M224.583 34.3966C224.583 39.5571 220.096 41.7556 215.25 41.7556C213.292 41.9327 211.327 41.5184 209.607 40.5662C207.888 39.6141 206.493 38.1678 205.605 36.4146L211.436 33.0961C211.673 33.9065 212.181 34.6109 212.876 35.0916C213.57 35.5722 214.408 35.8 215.25 35.7368C216.865 35.7368 217.671 35.2417 217.671 34.346C217.671 31.8769 206.634 33.1797 206.634 25.4158C206.634 20.526 210.761 18.0591 215.437 18.0591C217.191 18.004 218.928 18.4203 220.466 19.2644C222.005 20.1085 223.289 21.3497 224.185 22.8587L218.443 25.955C218.192 25.3661 217.773 24.8642 217.238 24.512C216.704 24.1598 216.077 23.9728 215.437 23.9744C214.271 23.9744 213.553 24.4145 213.553 25.231C213.547 27.8057 224.583 26.1002 224.583 34.3966Z" fill="white"/>
<path d="M249.179 18.6968V41.1301H242.45V39.0175C241.672 39.9482 240.685 40.6814 239.57 41.1573C238.455 41.6331 237.242 41.838 236.033 41.7551C231.501 41.7551 227.644 38.5246 227.644 32.4662V18.6968H234.373V31.4847C234.317 32.0194 234.377 32.56 234.551 33.0689C234.724 33.5778 235.007 34.0427 235.378 34.4313C235.75 34.8199 236.202 35.1228 236.703 35.3189C237.203 35.515 237.741 35.5997 238.277 35.5669C240.744 35.5669 242.458 34.1321 242.458 30.9456V18.6968H249.179Z" fill="white"/>
<path d="M287.752 27.3538V41.1298H281.022V27.9392C281.022 25.6967 279.944 24.2597 277.792 24.2597C275.547 24.2597 274.293 25.831 274.293 28.4784V41.1298H267.561V27.9392C267.561 25.6967 266.485 24.2597 264.331 24.2597C262.088 24.2597 260.832 25.831 260.832 28.4784V41.1298H254.102V18.6965H260.842V20.7519C261.54 19.8367 262.456 19.1108 263.506 18.6407C264.556 18.1705 265.707 17.9711 266.855 18.0605C268.007 18.0042 269.153 18.2472 270.184 18.7659C271.214 19.2847 272.092 20.0614 272.733 21.0204C273.478 20.017 274.467 19.2191 275.605 18.7015C276.743 18.1838 277.993 17.9633 279.24 18.0605C284.389 18.0693 287.752 21.7466 287.752 27.3538Z" fill="white"/>
<path d="M293.454 18.5582C296.213 18.5582 298.449 16.3216 298.449 13.5627C298.449 10.8038 296.213 8.56726 293.454 8.56726C290.695 8.56726 288.458 10.8038 288.458 13.5627C288.458 16.3216 290.695 18.5582 293.454 18.5582Z" fill="white"/>
<path d="M75.4542 8.37811H82.1859V41.1302H75.4542V8.37811ZM85.9974 29.9136C85.99 27.5617 86.6807 25.2605 87.9819 23.3013C89.2832 21.3422 91.1365 19.8132 93.3073 18.9081C95.478 18.0029 97.8686 17.7622 100.176 18.2165C102.484 18.6708 104.605 19.7996 106.27 21.4601C107.936 23.1205 109.072 25.2378 109.533 27.544C109.995 29.8502 109.762 32.2415 108.863 34.4151C107.965 36.5887 106.442 38.4468 104.487 39.7543C102.532 41.0617 100.233 41.7596 97.8809 41.7596C96.3188 41.7763 94.7691 41.4816 93.3223 40.8927C91.8754 40.3037 90.5604 39.4324 89.454 38.3295C88.3477 37.2267 87.4722 35.9144 86.8787 34.4694C86.2852 33.0244 85.9856 31.4757 85.9974 29.9136ZM103.048 29.9136C103.022 28.899 102.697 27.9148 102.114 27.084C101.531 26.2532 100.716 25.6127 99.7711 25.2427C98.8261 24.8726 97.793 24.7893 96.8009 25.0034C95.8089 25.2174 94.902 25.7192 94.1937 26.4459C93.4853 27.1727 93.007 28.0922 92.8185 29.0894C92.63 30.0866 92.7398 31.1172 93.134 32.0524C93.5282 32.9876 94.1894 33.7857 95.0349 34.3471C95.8804 34.9084 96.8726 35.208 97.8875 35.2083C98.5824 35.2281 99.2739 35.1037 99.9184 34.843C100.563 34.5822 101.146 34.1908 101.632 33.6933C102.118 33.1959 102.495 32.6032 102.74 31.9527C102.985 31.3021 103.093 30.6078 103.057 29.9136H103.048ZM136.606 18.6903V40.0035C136.606 47.5407 130.728 50.725 124.762 50.725C122.662 50.8835 120.559 50.4608 118.683 49.5032C116.807 48.5455 115.231 47.09 114.128 45.296L119.87 41.9753C120.333 42.9115 121.071 43.684 121.986 44.1894C122.9 44.6947 123.947 44.9088 124.986 44.8031C125.649 44.8937 126.325 44.8342 126.962 44.6289C127.599 44.4237 128.182 44.078 128.668 43.6173C129.154 43.1566 129.53 42.5928 129.769 41.9673C130.008 41.3418 130.103 40.6707 130.048 40.0035V37.9393C129.259 38.9033 128.256 39.6692 127.118 40.1756C125.981 40.6819 124.74 40.9147 123.496 40.8551C120.535 40.7631 117.726 39.5221 115.664 37.395C113.602 35.2679 112.449 32.4217 112.449 29.4591C112.449 26.4966 113.602 23.6504 115.664 21.5233C117.726 19.3961 120.535 18.1551 123.496 18.0631C124.74 18.0036 125.981 18.2364 127.118 18.7427C128.256 19.2491 129.259 20.015 130.048 20.979V18.6903H136.606ZM130.056 29.458C130.101 28.3745 129.82 27.3025 129.25 26.3798C128.68 25.4571 127.848 24.726 126.859 24.2804C125.87 23.8347 124.771 23.695 123.702 23.8791C122.634 24.0633 121.645 24.5628 120.862 25.3136C120.08 26.0644 119.54 27.0321 119.311 28.0923C119.083 29.1524 119.178 30.2566 119.582 31.2628C119.986 32.269 120.682 33.1312 121.581 33.7386C122.479 34.3461 123.539 34.6709 124.623 34.6714C125.33 34.7211 126.04 34.6222 126.706 34.3812C127.373 34.1402 127.982 33.7623 128.493 33.2719C129.005 32.7815 129.409 32.1894 129.678 31.5337C129.947 30.878 130.076 30.1732 130.056 29.4646V29.458ZM140.417 29.8982C140.41 27.5463 141.1 25.245 142.402 23.2859C143.703 21.3268 145.556 19.7978 147.727 18.8926C149.898 17.9875 152.288 17.7468 154.596 18.2011C156.903 18.6554 159.024 19.7842 160.69 21.4447C162.356 23.1051 163.491 25.2224 163.953 27.5286C164.414 29.8348 164.181 32.2261 163.283 34.3997C162.385 36.5733 160.861 38.4314 158.906 39.7389C156.951 41.0463 154.652 41.7442 152.3 41.7442C150.74 41.7609 149.191 41.4667 147.745 40.8787C146.3 40.2907 144.985 39.4207 143.879 38.3195C142.773 37.2183 141.897 35.9079 141.303 34.4647C140.708 33.0215 140.407 31.4744 140.417 29.9136V29.8982ZM157.468 29.8982C157.442 28.883 157.117 27.8981 156.534 27.0666C155.951 26.2351 155.136 25.5939 154.19 25.2234C153.245 24.8529 152.211 24.7694 151.218 24.9835C150.226 25.1975 149.318 25.6996 148.609 26.4268C147.901 27.154 147.422 28.0741 147.234 29.0719C147.045 30.0698 147.155 31.101 147.55 32.0367C147.944 32.9723 148.606 33.7708 149.452 34.3322C150.299 34.8936 151.292 35.193 152.307 35.1929C153 35.2113 153.689 35.0864 154.331 34.8261C154.974 34.5657 155.555 34.1755 156.04 33.6799C156.524 33.1842 156.901 32.5939 157.147 31.9458C157.393 31.2977 157.502 30.6058 157.468 29.9136V29.8982Z" fill="white"/>
<defs>
<filter id="filter0_d_1_129" x="0" y="0" width="62.6038" height="57.972" filterUnits="userSpaceOnUse" color-interpolation-filters="sRGB">
<feFlood flood-opacity="0" result="BackgroundImageFix"/>
<feColorMatrix in="SourceAlpha" type="matrix" values="0 0 0 0 0 0 0 0 0 0 0 0 0 0 0 0 0 0 127 0" result="hardAlpha"/>
<feOffset dy="4"/>
<feGaussianBlur stdDeviation="2"/>
<feComposite in2="hardAlpha" operator="out"/>
<feColorMatrix type="matrix" values="0 0 0 0 0 0 0 0 0 0 0 0 0 0 0 0 0 0 0.25 0"/>
<feBlend mode="normal" in2="BackgroundImageFix" result="effect1_dropShadow_1_129"/>
<feBlend mode="normal" in="SourceGraphic" in2="effect1_dropShadow_1_129" result="shape"/>
</filter>
</defs>
</svg>

<svg width="299" height="59" fill="none" xmlns="http://www.w3.org/2000/svg"><g filter="url(#filter0_d_1_129)"><path d="M45.818 48.83L6.338 21.599c-4-2.76-2.64-8.506 2.349-9.857L50.647.353a5.942 5.942 0 017.957 5.484l-2.487 38.619c-.295 4.584-6.298 7.134-10.299 4.375z" fill="#E9327C"/></g><path d="M33.296 55.553L10.038 10.068A6.345 6.345 0 0116.655.911L59.76 7.564a6.344 6.344 0 014.68 9.159L44.585 55.555a6.344 6.344 0 01-11.288-.002z" fill="#1DACE3"/><path d="M58.498 7.368L37.011 4.052 10.63 11.215l10.53 20.6 24.658 17.016a6.355 6.355 0 001.774.842l9.366-18.315 1.54-23.99z" fill="#3A68B8"/><path d="M167.335 12.685a4.036 4.036 0 014.826-3.96 4.042 4.042 0 013.173 3.172 4.034 4.034 0 01-1.717 4.146 4.04 4.04 0 01-2.244.68 4.08 4.08 0 01-4.038-4.038zm.674 6.012h6.731V41.13h-6.731V18.697zm35.802 11.217a11.274 11.274 0 01-2.898 8.153 11.257 11.257 0 01-7.824 3.693 8.424 8.424 0 01-6.685-2.738v11.083h-6.73V18.697h6.73v2.108a8.418 8.418 0 016.685-2.735 11.266 11.266 0 0110.087 7.479 11.27 11.27 0 01.635 4.365zm-6.73 0a5.336 5.336 0 00-3.389-4.838 5.342 5.342 0 10-1.95 10.313 5.124 5.124 0 005.039-3.354 5.124 5.124 0 00.3-2.121zm27.502 4.483c0 5.16-4.487 7.359-9.333 7.359a9.822 9.822 0 01-9.645-5.341l5.831-3.319a3.683 3.683 0 003.814 2.64c1.615 0 2.421-.494 2.421-1.39 0-2.47-11.037-1.166-11.037-8.93 0-4.89 4.127-7.357 8.803-7.357a9.813 9.813 0 018.748 4.8l-5.742 3.096a3.256 3.256 0 00-3.006-1.98c-1.166 0-1.884.44-1.884 1.256-.006 2.575 11.03.87 11.03 9.166zm24.596-15.7V41.13h-6.729v-2.113a7.687 7.687 0 01-6.417 2.738c-4.532 0-8.389-3.23-8.389-9.289v-13.77h6.729v12.789a3.704 3.704 0 002.33 3.834c.5.196 1.038.28 1.574.248 2.467 0 4.181-1.435 4.181-4.621v-12.25h6.721zm38.573 8.657V41.13h-6.73V27.94c0-2.243-1.078-3.68-3.23-3.68-2.245 0-3.499 1.571-3.499 4.218V41.13h-6.732V27.94c0-2.243-1.076-3.68-3.23-3.68-2.243 0-3.499 1.571-3.499 4.218V41.13h-6.73V18.696h6.74v2.056a6.893 6.893 0 016.013-2.691 6.68 6.68 0 015.878 2.96 7.386 7.386 0 016.507-2.96c5.149.008 8.512 3.686 8.512 9.293zm5.702-8.796a4.995 4.995 0 100-9.99 4.995 4.995 0 000 9.99zm-218-10.18h6.732V41.13h-6.732V8.378zm10.543 21.536A11.884 11.884 0 1197.881 41.76a11.758 11.758 0 01-11.884-11.846zm17.051 0a5.156 5.156 0 00-3.277-4.671 5.16 5.16 0 10-1.883 9.965 5.034 5.034 0 005.169-5.294h-.009zm33.558-11.224v21.314c0 7.537-5.878 10.721-11.844 10.721a11.471 11.471 0 01-10.634-5.429l5.742-3.32a5.124 5.124 0 005.116 2.827 4.471 4.471 0 005.062-4.8V37.94a7.977 7.977 0 01-6.552 2.916 11.401 11.401 0 010-22.792 7.97 7.97 0 016.552 2.916v-2.29h6.558zm-6.55 10.768a5.428 5.428 0 00-3.197-5.178 5.437 5.437 0 10-2.236 10.391 5.077 5.077 0 005.433-5.206v-.007zm10.361.44a11.881 11.881 0 017.31-11.005 11.884 11.884 0 114.573 22.851 11.76 11.76 0 01-11.883-11.83v-.016zm17.051 0a5.163 5.163 0 10-5.161 5.295 5.031 5.031 0 005.161-5.28v-.015z" fill="#fff"/><defs><filter id="filter0_d_1_129" x="0" y="0" width="62.604" height="57.972" filterUnits="userSpaceOnUse" color-interpolation-filters="sRGB"><feFlood flood-opacity="0" result="BackgroundImageFix"/><feColorMatrix in="SourceAlpha" values="0 0 0 0 0 0 0 0 0 0 0 0 0 0 0 0 0 0 127 0" result="hardAlpha"/><feOffset dy="4"/><feGaussianBlur stdDeviation="2"/><feComposite in2="hardAlpha" operator="out"/><feColorMatrix values="0 0 0 0 0 0 0 0 0 0 0 0 0 0 0 0 0 0 0.25 0"/><feBlend in2="BackgroundImageFix" result="effect1_dropShadow_1_129"/><feBlend in="SourceGraphic" in2="effect1_dropShadow_1_129" result="shape"/></filter></defs></svg>
